X: 39
T: Song in Time of Danger
C: Teton Sioux band 1911-1914
N: Derived from sioux039.krn
O: South Dakota, U.S.A.
N: Teton Sioux Music by Frances Densmore, 1918
Z: transcribed to **kern format by Craig Sapp
L: 1/16
M: 2/4
Q: 1/4=58
K: Db clef=bass
%%linebreak <none>
F [I:setbarnb 1]| 
F2> E2 E3 D | 
(D2 B,) B, (D B,) B,2 | 
A,4A,4 | 
A,8- | 
A,7 ]|:  
E [I:setbarnb 6]| 
D2> D2 (E D2) B, | 
A,2> B,2 (B, A,2) F, | 
E,2> F,2 E,3 D, | 
D,2 B,, B,,2< D,2 B,, | 
A,,4A,,3 F, | 
E,2> E,2 (F, E,2) D, | 
(D,2 B,,) B,, D,2 B,, B,, | 
A,,4A,,4 | 
A,,8 | 
A,,7 :|]  



